packages/core/src/svgs/agla.svg

<svg width="24" height="24" viewBox="0 0 24 24" fill="none" xmlns="http://www.w3.org/2000/svg">
<g clip-path="url(#clip0_31_5739)">
<path d="M0 0H24V24H0V0Z" fill="#F0F3FA"/>
<path d="M12 18.8574C15.7871 18.8574 18.8571 15.7873 18.8571 12.0002C18.8571 8.21311 15.7871 5.14307 12 5.14307C8.21287 5.14307 5.14282 8.21311 5.14282 12.0002C5.14282 15.7873 8.21287 18.8574 12 18.8574Z" fill="#ABABAB"/>
<path fill-rule="evenodd" clip-rule="evenodd" d="M9.03852 13.7144C7.97138 13.8686 6.76709 14.9358 6.21423 15.6215C6.80781 16.5784 7.62802 17.3742 8.60234 17.9387C9.57665 18.5031 10.675 18.8188 11.8004 18.8578C12.9257 18.8968 14.0433 18.6579 15.0544 18.1622C16.0654 17.6665 16.9387 16.9293 17.5971 16.0158L17.6099 15.8572C16.7528 14.4858 15.5399 13.8558 15.0385 13.7144C15.7542 11.8586 16.7142 7.71436 14.7857 7.71436C12.8571 7.71436 12.3257 10.5729 12.2528 12.2144H11.8242C11.7514 10.5729 11.1428 7.71436 9.2528 7.71436C7.28566 7.71436 8.3228 11.8586 9.03852 13.7144ZM12.2142 16.9286C12.2142 16.8718 12.1917 16.8173 12.1515 16.7771C12.1113 16.7369 12.0568 16.7144 11.9999 16.7144C11.9431 16.7144 11.8886 16.7369 11.8484 16.7771C11.8082 16.8173 11.7857 16.8718 11.7857 16.9286C11.7857 17.1129 11.7428 17.2801 11.6571 17.4001C11.5885 17.5115 11.4857 17.5715 11.3571 17.5715C10.9842 17.5715 10.9285 17.4001 10.9285 17.3572C10.9285 17.3004 10.9059 17.2459 10.8658 17.2057C10.8256 17.1655 10.7711 17.1429 10.7142 17.1429C10.6574 17.1429 10.6029 17.1655 10.5627 17.2057C10.5225 17.2459 10.4999 17.3004 10.4999 17.3572C10.4999 17.7429 10.8728 18.0001 11.3571 18.0001C11.6571 18.0001 11.8757 17.8458 12.0171 17.6358C12.1457 17.8244 12.3514 18.0001 12.6428 18.0001C13.1271 18.0001 13.4999 17.7429 13.4999 17.3572C13.4999 17.3004 13.4774 17.2459 13.4372 17.2057C13.397 17.1655 13.3425 17.1429 13.2857 17.1429C13.2288 17.1429 13.1743 17.1655 13.1341 17.2057C13.094 17.2459 13.0714 17.3004 13.0714 17.3572C13.0714 17.4001 13.0157 17.5715 12.6428 17.5715C12.5357 17.5715 12.4328 17.5029 12.3428 17.3572C12.2571 17.2072 12.2142 17.0315 12.2142 16.9286Z" fill="white"/>
</g>
<defs>
<clipPath id="clip0_31_5739">
<rect width="24" height="24" fill="white"/>
</clipPath>
</defs>
</svg>

<svg xmlns="http://www.w3.org/2000/svg" width="24" height="24" fill="none" viewBox="0 0 24 24"><g clip-path="url(#a)"><path fill="#F0F3FA" d="M0 0h24v24H0z"/><path fill="#ABABAB" d="M12 18.857a6.857 6.857 0 1 0 0-13.714 6.857 6.857 0 0 0 0 13.714"/><path fill="#fff" fill-rule="evenodd" d="M9.039 13.714c-1.068.155-2.272 1.222-2.825 1.907a6.853 6.853 0 0 0 11.383.395l.013-.159c-.857-1.371-2.07-2.001-2.571-2.143.715-1.855 1.675-6-.253-6-1.929 0-2.46 2.859-2.533 4.5h-.429c-.073-1.641-.681-4.5-2.571-4.5-1.967 0-.93 4.145-.214 6m3.175 3.215a.214.214 0 1 0-.428 0 .8.8 0 0 1-.129.471.34.34 0 0 1-.3.172c-.373 0-.428-.172-.428-.215a.215.215 0 0 0-.43 0c0 .386.374.643.858.643.3 0 .519-.154.66-.364.129.188.334.364.626.364.484 0 .857-.257.857-.643a.214.214 0 1 0-.429 0c0 .043-.055.215-.428.215-.107 0-.21-.07-.3-.215a1 1 0 0 1-.129-.428" clip-rule="evenodd"/></g><defs><clipPath id="a"><path fill="#fff" d="M0 0h24v24H0z"/></clipPath></defs></svg>
